lib/svgs/search-member.svg

<?xml version="1.0" encoding="UTF-8" standalone="no"?>
<svg width="20px" height="20px" viewBox="0 0 20 20" version="1.1" xmlns="http://www.w3.org/2000/svg" xmlns:xlink="http://www.w3.org/1999/xlink">
    <defs></defs>
    <g id="Icons" stroke="none" stroke-width="1" fill="none" fill-rule="evenodd">
        <g id="Web" transform="translate(-145.000000, -2246.000000)" fill="#000000">
            <g id="user/search-member" transform="translate(145.000000, 2246.000000)">
                <path d="M1.60050073,17.001 C1.56050073,17.001 1.51950073,16.996 1.47950073,16.988 C1.15450073,16.922 0.945500733,16.605 1.01250073,16.279 L1.61750073,13.333 C1.62850073,13.282 1.64550073,13.233 1.66850073,13.187 C1.92250073,12.677 2.35850073,12.29 2.89550073,12.098 L6.51650073,10.807 C6.62050073,10.77 6.69050073,10.67 6.69050073,10.56 L6.69050073,10.032 C6.69050073,9.714 6.54950073,9.415 6.30350073,9.212 C5.42550073,8.489 4.92150073,7.43 4.92150073,6.307 L4.92150073,4.789 C4.92150073,2.7 6.62150073,1 8.71150073,1 C10.8005007,1 12.5005007,2.7 12.5005007,4.789 L12.5005007,6.307 C12.5005007,7.425 11.9995007,8.481 11.1275007,9.206 C10.8775007,9.413 10.7335007,9.718 10.7335007,10.043 L10.7335007,10.561 C10.7335007,10.671 10.8035007,10.771 10.9075007,10.808 C11.2195007,10.919 11.3825007,11.262 11.2705007,11.574 C11.1595007,11.886 10.8145007,12.051 10.5045007,11.938 C9.92350073,11.73 9.53350073,11.177 9.53350073,10.561 L9.53350073,10.043 C9.53350073,9.36 9.83550073,8.718 10.3615007,8.282 C10.9575007,7.787 11.3005007,7.067 11.3005007,6.307 L11.3005007,4.789 C11.3005007,3.361 10.1395007,2.2 8.71150073,2.2 C7.28350073,2.2 6.12150073,3.361 6.12150073,4.789 L6.12150073,6.307 C6.12150073,7.07 6.46650073,7.792 7.06650073,8.287 C7.59050073,8.718 7.89050073,9.354 7.89050073,10.032 L7.89050073,10.56 C7.89050073,11.176 7.50050073,11.73 6.91950073,11.937 L3.29850073,13.229 C3.07750073,13.308 2.89350073,13.46 2.77550073,13.661 L2.18750073,16.522 C2.12950073,16.805 1.87950073,17.001 1.60050073,17.001 M16.1489776,15.5544151 C16.8510519,14.4930975 16.7352552,13.046095 15.8015876,12.1124274 C14.7676236,11.0784634 12.9659368,11.0793752 11.9328846,12.1124274 C11.4168144,12.6284976 11.1314257,13.3159833 11.1314257,14.046323 C11.1314257,14.7766626 11.4159026,15.4641484 11.9328846,15.9811304 C12.4662787,16.5136127 13.1665294,16.7807656 13.8667802,16.7807656 C14.3937918,16.7807656 14.9198917,16.6294094 15.3757841,16.3285204 L17.1975301,18.1493547 C17.304209,18.2560335 17.4446238,18.3098288 17.5841269,18.3098288 C17.7245418,18.3098288 17.8640448,18.2560335 17.9707237,18.1493547 C18.1849931,17.935997 18.1849931,17.5895188 17.9707237,17.3761611 L16.1489776,15.5544151 M12.7069899,15.207025 C12.3969831,14.8970182 12.2264793,14.4848915 12.2264793,14.046323 C12.2264793,13.6086663 12.3969831,13.1956277 12.7069899,12.8865327 C13.0169967,12.5756141 13.4291235,12.4051103 13.8667802,12.4051103 C14.3053487,12.4051103 14.7183872,12.5756141 15.0274823,12.8865327 C15.6675552,13.5256938 15.6675552,14.5669521 15.0274823,15.207025 C14.3874093,15.8461862 13.3461511,15.8461862 12.7069899,15.207025" id="Shape"></path>
            </g>
        </g>
    </g>
</svg>

<svg xmlns="http://www.w3.org/2000/svg" viewBox="0 0 20 20">
    <path fill="#000" fill-rule="evenodd" d="M1.6 17.001a.599.599 0 0 1-.588-.722l.606-2.946a.617.617 0 0 1 .05-.146c.255-.51.69-.897 1.228-1.089l3.62-1.291a.263.263 0 0 0 .175-.247v-.528a1.06 1.06 0 0 0-.387-.82 3.757 3.757 0 0 1-1.382-2.905V4.789a3.794 3.794 0 0 1 7.579 0v1.518a3.766 3.766 0 0 1-1.373 2.899c-.25.207-.394.512-.394.837v.518c0 .11.07.21.174.247a.599.599 0 1 1-.403 1.13 1.466 1.466 0 0 1-.971-1.377v-.518c0-.683.302-1.325.828-1.761a2.567 2.567 0 0 0 .939-1.975V4.789a2.591 2.591 0 0 0-5.18 0v1.518c0 .763.346 1.485.946 1.98.524.431.824 1.067.824 1.745v.528c0 .616-.39 1.17-.971 1.377l-3.621 1.292a.99.99 0 0 0-.523.432l-.588 2.861a.6.6 0 0 1-.587.479m14.548-1.447a2.74 2.74 0 0 0-.347-3.442 2.801 2.801 0 0 0-3.87 0 2.719 2.719 0 0 0 0 3.87 2.73 2.73 0 0 0 3.444.347l1.822 1.82a.546.546 0 1 0 .773-.773l-1.822-1.822m-3.442-.347a1.63 1.63 0 0 1 0-2.32 1.627 1.627 0 0 1 2.32 0 1.642 1.642 0 0 1-2.32 2.32"/>
</svg>
